svg/fluentui-system-icons/ic_fluent_square_arrow_forward_20_regular.svg

<svg width="20" height="20" viewBox="0 0 20 20" fill="none" xmlns="http://www.w3.org/2000/svg">
<path d="M3 6C3 4.34315 4.34315 3 6 3H14C15.6569 3 17 4.34315 17 6V9.59971C16.6832 9.43777 16.3486 9.30564 16 9.20703V6C16 4.89543 15.1046 4 14 4H6C4.89543 4 4 4.89543 4 6V14C4 15.1046 4.89543 16 6 16H9.20703C9.30564 16.3486 9.43777 16.6832 9.59971 17H6C4.34315 17 3 15.6569 3 14V6ZM14.5 19C12.0147 19 10 16.9853 10 14.5C10 12.0147 12.0147 10 14.5 10C16.9853 10 19 12.0147 19 14.5C19 16.9853 16.9853 19 14.5 19ZM15.3964 12.6036L16.2929 13.5H14.75C13.2312 13.5 12 14.7312 12 16.25V16.5C12 16.7761 12.2239 17 12.5 17C12.7761 17 13 16.7761 13 16.5V16.25C13 15.2835 13.7835 14.5 14.75 14.5H16.2929L15.3964 15.3964C15.2012 15.5917 15.2012 15.9083 15.3964 16.1036C15.5917 16.2988 15.9083 16.2988 16.1036 16.1036L17.8557 14.3514C17.9026 14.304 17.938 14.2495 17.9621 14.1914C17.9865 14.1324 18 14.0678 18 14C18 13.9322 17.9865 13.8676 17.9621 13.8086C17.9377 13.7496 17.9015 13.6944 17.8536 13.6464L16.1036 11.8964C15.9083 11.7012 15.5917 11.7012 15.3964 11.8964C15.2012 12.0917 15.2012 12.4083 15.3964 12.6036Z" fill="#212121"/>
</svg>

<svg xmlns="http://www.w3.org/2000/svg" width="20" height="20"><path d="M3 6a3 3 0 0 1 3-3h8a3 3 0 0 1 3 3v3.6a5.465 5.465 0 0 0-1-.393V6a2 2 0 0 0-2-2H6a2 2 0 0 0-2 2v8a2 2 0 0 0 2 2h3.207c.099.349.23.683.393 1H6a3 3 0 0 1-3-3V6Zm11.5 13a4.5 4.5 0 1 1 0-9 4.5 4.5 0 0 1 0 9Zm.896-6.396.897.896H14.75A2.75 2.75 0 0 0 12 16.25v.25a.5.5 0 0 0 1 0v-.25c0-.966.784-1.75 1.75-1.75h1.543l-.897.896a.5.5 0 0 0 .708.708l1.752-1.753a.499.499 0 0 0-.002-.705l-1.75-1.75a.5.5 0 0 0-.708.708Z"/></svg>
